X: 30052
T: A Man's a Man for A' That
B: RSCDS 30-5
R: strathspey
M: C
L: 1/4
%--------------------
K: D
"A7"A/B/ \
| "D"d>e dA | "G"B>d "A7"eg | "D"fe dA | "G"B2 B"A7"f/e/ |
| "D"d>e dA | "G"B>d "A7"eg | "D"f>e "G"dB | "A7"A2 A |]
g \
| "D"f>g af | "A7"g>f e>g | "D7"f>g ad | "G"B2 B"(A7)"g |
| "D"f>g af/a/ | "Em"be "A"e>f | "Bm"d>e "G"e/d/c/B/ | "D"A2 |]
%%center Book30/30051-Mans_a_Man_for_A_That-2.abc

%%sep 1 1 500
%%sep 1 1 500

